X: 1
T: Nuuskapolkka   [G]
M: 2/4
L: 1/8
K: G
"A"[|]\
"D7"D \
|: "G"GG/A/ BB | "D7"AA/B/ cc | "G"BB "D7"AA |1 "G"GB D2 :|2 "G"GB "fine"G ||
"^B"[|] G/B/ \
|| "G"dd BG | "C"e2 z2 | "D7"cc Ae | "G"d2 z2 \
"I"\
| dd BG | "C"ez "G"dz | "D7"cz Az | "G"G2z |]
